X: 41603
T: Up Downey
R: reel
M: 4/4
K: Eminor
EFGA BGdB|BAGA AGFG|EFGA B/c/def|gfed eaz2|
EFGA BGdB|BAGA AGFG|EFGA BGdB|1 AGFG E2zD:|2 AGFG E2zf||
|:gfeg fegf|egfe a3f|gfeg fegf|egfe B3f|
gfeg fegf|egfe a2ga|b3g agef|1 gagf e2zf:|2 g2gf fee2:|

